tenants/donaldduck/icons/check_circle_inverted.svg

<svg fill="none" height="24" viewBox="0 0 24 24" width="24" xmlns="http://www.w3.org/2000/svg" xmlns:xlink="http://www.w3.org/1999/xlink"><clipPath id="a"><path d="m0 0h24v24h-24z"/></clipPath><g clip-path="url(#a)"><path clip-rule="evenodd" d="m12 0c6.6274 0 12 5.37258 12 12 0 6.6274-5.3726 12-12 12-6.62742 0-12-5.3726-12-12 0-6.62742 5.37258-12 12-12zm-2.426 14.742 7.67-7.96898c.0318-.03375.0701-.06064.1127-.07902s.0884-.02786.1348-.02786.0922.00948.1348.02786.0809.04527.1127.07902l.825.857c.0657.06945.1023.16141.1023.257s-.0366.18755-.1023.257l-8.743 9.08298c-.03179.0338-.07014.0607-.11271.079-.04256.0184-.08843.0279-.13479.0279s-.09223-.0095-.1348-.0279c-.04256-.0183-.08091-.0452-.1127-.079l-3.89-4.042c-.06569-.0694-.10229-.1614-.10229-.257s.0366-.1875.10229-.257l.825-.857c.03177-.0336.07007-.0603.11254-.0786s.08822-.0277.13446-.0277.09199.0094.13446.0277.08076.045.11254.0786z" fill="#fff" fill-rule="evenodd"/></g></svg>

<svg width="24" height="24" viewBox="0 0 24 24" fill="none" xmlns="http://www.w3.org/2000/svg">
<g clip-path="url(#clip0_2215_23086)">
<path fill-rule="evenodd" clip-rule="evenodd" d="M12 0C18.6274 0 24 5.37258 24 12C24 18.6274 18.6274 24 12 24C5.37258 24 0 18.6274 0 12C0 5.37258 5.37258 0 12 0ZM9.574 14.742L17.244 6.77302C17.2758 6.73927 17.3141 6.71238 17.3567 6.694C17.3993 6.67562 17.4451 6.66614 17.4915 6.66614C17.5379 6.66614 17.5837 6.67562 17.6263 6.694C17.6689 6.71238 17.7072 6.73927 17.739 6.77302L18.564 7.63002C18.6297 7.69947 18.6663 7.79143 18.6663 7.88702C18.6663 7.98261 18.6297 8.07457 18.564 8.14402L9.821 17.227C9.78921 17.2608 9.75086 17.2877 9.70829 17.306C9.66573 17.3244 9.61986 17.3339 9.5735 17.3339C9.52714 17.3339 9.48127 17.3244 9.4387 17.306C9.39614 17.2877 9.35779 17.2608 9.326 17.227L5.436 13.185C5.37031 13.1156 5.33371 13.0236 5.33371 12.928C5.33371 12.8324 5.37031 12.7405 5.436 12.671L6.261 11.814C6.29277 11.7804 6.33107 11.7537 6.37354 11.7354C6.41601 11.7171 6.46176 11.7077 6.508 11.7077C6.55424 11.7077 6.59999 11.7171 6.64246 11.7354C6.68493 11.7537 6.72322 11.7804 6.755 11.814L9.574 14.742Z" fill="white"/>
</g>
<defs>
<clipPath id="clip0_2215_23086">
<rect width="24" height="24" fill="white"/>
</clipPath>
</defs>
</svg>
